X:4
T:Big John McNeil
C:Peter Milne
R:reel
M:4/4
L:1/8
K:A
E | A,2CE FECE | AECE FECE | A,2CE FECE | FAGF EDCB, |
A,2CE FECE | AECE FECE | B,DCE DFEG | FAGB cA A ::
c | eAfA eAca | eAfA e2 (3fga | eAfA eAce | daca B2cd | eAfA eAca |
eAfA e2fg | agfe fedc |1 defg aAA :|2 BAGF EDCB, | HA,4 |]
